svg/Outline/push.svg

<svg viewBox="0 0 24 24" xmlns="http://www.w3.org/2000/svg" width="24" height="24"><path d="M8.68 8.4c.5-.04.92.38.92.88v.2c0 .38-.3.68-.67.71a2 2 0 0 0-.92.2 2.2 2.2 0 0 0-.96.96c-.07.13-.15.36-.2.91-.04.58-.04 1.34-.04 2.48v1.2c0 1.14 0 1.9.05 2.47.04.56.12.79.19.92q.31.63.96.96l.12.05c.15.06.38.1.8.14.57.05 1.33.05 2.48.05h1.18c1.15 0 1.9 0 2.48-.05.56-.04.8-.12.92-.19l.15-.08q.53-.33.81-.88l.06-.12c.05-.15.1-.38.14-.8.04-.57.04-1.33.04-2.48v-1.19c0-1.14 0-1.9-.04-2.48a3 3 0 0 0-.14-.8l-.06-.11a2.2 2.2 0 0 0-.96-.97 3 3 0 0 0-.92-.19.7.7 0 0 1-.67-.7v-.2c0-.51.42-.93.92-.88a4 4 0 0 1 1.49.37 4 4 0 0 1 1.75 1.75c.43.85.43 1.98.43 4.21v2.67c-.02 1.3-.1 2.1-.43 2.74l-.16.27a4 4 0 0 1-1.59 1.47l-.16.08c-.62.27-1.38.34-2.57.35l-1.49.01H9.92a7 7 0 0 1-2.57-.36l-.16-.07a4 4 0 0 1-1.6-1.48l-.15-.27c-.32-.64-.4-1.44-.43-2.74v-2.67c0-2.1 0-3.21.36-4.05l.07-.16a4 4 0 0 1 1.48-1.6l.27-.15a4 4 0 0 1 1.49-.37"/><path d="M11.36 1.38a.9.9 0 0 1 1.28 0l2.88 2.88a.9.9 0 0 1-1.27 1.28L12.9 4.19v10.6a.9.9 0 0 1-1.8 0V4.19L9.75 5.54l-.07.06a.9.9 0 0 1-1.26-1.27l.06-.07z"/></svg>

<svg viewBox="0 0 24 24" xmlns="http://www.w3.org/2000/svg" width="24" height="24"><path d="M8.68 8.4C9.18 8.36 9.6 8.78 9.6 9.28L9.6 9.48C9.6 9.86 9.3 10.16 8.93 10.19A2 2 0 0 0 8.01 10.39A2.2 2.2 0 0 0 7.05 11.35C6.98 11.48 6.9 11.71 6.85 12.26C6.81 12.84 6.81 13.6 6.81 14.74L6.81 15.94C6.81 17.08 6.81 17.84 6.86 18.41C6.9 18.97 6.98 19.2 7.05 19.33Q7.36 19.96 8.01 20.29L8.13 20.34C8.28 20.4 8.51 20.44 8.93 20.48C9.5 20.53 10.26 20.53 11.41 20.53L12.59 20.53C13.74 20.53 14.49 20.53 15.07 20.48C15.63 20.44 15.87 20.36 15.99 20.29L16.14 20.21Q16.67 19.88 16.95 19.33L17.01 19.21C17.06 19.06 17.11 18.83 17.15 18.41C17.19 17.84 17.19 17.08 17.19 15.93L17.19 14.74C17.19 13.6 17.19 12.84 17.15 12.26A3 3 0 0 0 17.01 11.46L16.95 11.35A2.2 2.2 0 0 0 15.99 10.38A3 3 0 0 0 15.07 10.19A.7 .7 0 0 1 14.4 9.49L14.4 9.29C14.4 8.78 14.82 8.36 15.32 8.41A4 4 0 0 1 16.81 8.78A4 4 0 0 1 18.56 10.53C18.99 11.38 18.99 12.51 18.99 14.74L18.99 17.41C18.97 18.71 18.89 19.51 18.56 20.15L18.4 20.42A4 4 0 0 1 16.81 21.89L16.65 21.97C16.03 22.24 15.27 22.31 14.08 22.32L9.92 22.33A7 7 0 0 1 7.35 21.97L7.19 21.9A4 4 0 0 1 5.59 20.42L5.44 20.15C5.12 19.51 5.04 18.71 5.01 17.41L5.01 14.74C5.01 12.64 5.01 11.53 5.37 10.69L5.44 10.53A4 4 0 0 1 6.92 8.93L7.19 8.78A4 4 0 0 1 8.68 8.41"/><path d="M11.36 1.38A.9 .9 0 0 1 12.64 1.38L15.52 4.26A.9 .9 0 0 1 14.25 5.54L12.9 4.19L12.9 14.79A.9 .9 0 0 1 11.1 14.79L11.1 4.19L9.68 5.6A.9 .9 0 0 1 8.42 4.33L8.48 4.26Z"/></svg>
